X: 1
T: Planxty Irwin
R: jig
M: 6/8
L: 1/8
K: Gmaj
|:d|g2 f efg|d2 c BAG|c2 A Bcd|F2 G A2 d|
g2 f efg|d2 c BAG|c2 A Bcd|G2 F G2:|
|:d|g2 g gfg|a2 a afd|b2 b a2 g|f2 e def|
g2 f efg|d2 c BAG|c2 A Bcd|G2 F G2:|


Tune 790	Setting 13930

